X: 1
T: Lisnagun
C: Brendan Ring
R: Jig
M: 6/8
L: 1/8
K: Gmaj
|:GED G3|ABd B3|ABd BAG|AGE GED|
GED G3|ABd B3|ABd BAG|AGE G3:|
|:d3 B3|ABd B3|ABd BAG|AGE GED|
[1 d3 B3|ABd B3|ABd BAG|AGE G3:|
[2 GED G3|ABd B3|ABd BAG|AGE G3||
